icons/ticket-check.svg

<svg xmlns="http://www.w3.org/2000/svg" width="24" height="24" viewBox="0 0 24 24">
  <path d="M20,4 C21.5976809,4 22.9036609,5.24891996 22.9949073,6.82372721 L23,7 L23,10 L22,10 C20.8954305,10 20,10.8954305 20,12 C20,13.0543618 20.8158778,13.9181651 21.8507377,13.9945143 L22,14 L23,14 L23,17 C23,18.5976809 21.75108,19.9036609 20.1762728,19.9949073 L20,20 L4,20 C2.40231912,20 1.09633912,18.75108 1.00509269,17.1762728 L1,17 L1,14 L2,14 C3.1045695,14 4,13.1045695 4,12 C4,10.9456382 3.18412221,10.0818349 2.14926234,10.0054857 L2,10 L1,10 L1,7 C1,5.40231912 2.24891996,4.09633912 3.82372721,4.00509269 L4,4 L20,4 Z M15.1616337,9.25016214 C14.7475097,8.8847586 14.1155778,8.92425435 13.7501742,9.33837836 L13.7501742,9.33837836 L10.9700121,12.488 L10.2498499,11.6717117 L10.1610152,11.5828086 C9.78851489,11.2539073 9.22065875,11.2461999 8.83839043,11.5834955 C8.42426642,11.948899 8.38477067,12.580831 8.75017421,12.994955 L8.75017421,12.994955 L10.2207624,14.6616216 L10.3105198,14.7513955 C10.7177952,15.1104909 11.3507811,15.0805663 11.7204382,14.6616216 L11.7204382,14.6616216 L15.2498499,10.6616216 L15.327,10.5624086 C15.6069605,10.1518544 15.543902,9.58745772 15.1616337,9.25016214 Z"/>
</svg>

<svg xmlns="http://www.w3.org/2000/svg" viewBox="0 0 24 24">
  <path d="M20 4a3 3 0 0 1 3 2.82V10h-1a2 2 0 0 0-.15 4H23v3a3 3 0 0 1-2.82 3H4a3 3 0 0 1-3-2.82V14h1a2 2 0 0 0 .15-4H1V7a3 3 0 0 1 2.82-3H20zm-4.84 5.25a1 1 0 0 0-1.41.09l-2.78 3.15-.72-.82-.09-.09A1 1 0 0 0 8.75 13l1.47 1.67.1.1a1 1 0 0 0 1.4-.1l3.53-4 .08-.1a1 1 0 0 0-.17-1.31z"/>
</svg>
